src/assets/img/createPassword/EyeSlash.svg

<svg fill="none" height="24" viewBox="0 0 24 24" width="24" xmlns="http://www.w3.org/2000/svg"><g stroke="#fff" stroke-linecap="round" stroke-linejoin="round" stroke-width="1.5"><path d="m4.5 3.75 15 16.5"/><path d="m14.5223 14.7749c-.7359.6689-1.7074 1.0181-2.7008.9708-.9934-.0474-1.92728-.4874-2.59626-1.2232-.66898-.7359-1.01826-1.7074-.971-2.7008s.48718-1.92731 1.223-2.59636"/><path d="m6.93698 6.43066c-3.82212 1.93552-5.43698 5.56934-5.43698 5.56934s3 6.7493 10.5 6.7493c1.7572.014 3.4926-.3908 5.0623-1.1808"/><path d="m19.5576 15.8531c2.0439-1.8307 2.9429-3.8531 2.9429-3.8531s-3-6.75072-10.5-6.75072c-.6496-.00106-1.2981.05175-1.939.15789"/><path d="m12.7061 8.31641c.797.15304 1.5229.56039 2.0689 1.16093.5459.60056.8824 1.36186.959 2.16986"/></g></svg>

<svg width="24" height="24" viewBox="0 0 24 24" fill="none" xmlns="http://www.w3.org/2000/svg">
<path d="M4.5 3.75L19.5 20.25" stroke="white" stroke-width="1.5" stroke-linecap="round" stroke-linejoin="round"/>
<path d="M14.5223 14.7749C13.7864 15.4438 12.8149 15.793 11.8215 15.7457C10.8281 15.6983 9.89422 15.2583 9.22524 14.5225C8.55626 13.7866 8.20698 12.8151 8.25424 11.8217C8.3015 10.8283 8.74142 9.89439 9.47724 9.22534" stroke="white" stroke-width="1.5" stroke-linecap="round" stroke-linejoin="round"/>
<path d="M6.93698 6.43066C3.11486 8.36618 1.5 12 1.5 12C1.5 12 4.5 18.7493 12 18.7493C13.7572 18.7633 15.4926 18.3585 17.0623 17.5685" stroke="white" stroke-width="1.5" stroke-linecap="round" stroke-linejoin="round"/>
<path d="M19.5576 15.8531C21.6015 14.0224 22.5005 12 22.5005 12C22.5005 12 19.5005 5.24928 12.0005 5.24928C11.3509 5.24822 10.7024 5.30103 10.0615 5.40717" stroke="white" stroke-width="1.5" stroke-linecap="round" stroke-linejoin="round"/>
<path d="M12.7061 8.31641C13.5031 8.46945 14.229 8.8768 14.775 9.47734C15.3209 10.0779 15.6574 10.8392 15.734 11.6472" stroke="white" stroke-width="1.5" stroke-linecap="round" stroke-linejoin="round"/>
</svg>
